Bina1026/PyMVL/Sample/total_datasets.csv
original_firstorder_10Percentile,original_firstorder_90Percentile,original_firstorder_Entropy,original_firstorder_InterquartileRange,original_firstorder_Kurtosis,original_firstorder_Maximum,original_firstorder_MeanAbsoluteDeviation,original_firstorder_Mean,original_firstorder_Median,original_firstorder_Minimum,original_firstorder_Range,original_firstorder_RobustMeanAbsoluteDeviation,original_firstorder_RootMeanSquared,original_firstorder_Skewness,original_firstorder_Uniformity,original_firstorder_Variance,original_glcm_Autocorrelation,original_glcm_ClusterProminence,original_glcm_ClusterShade,original_glcm_ClusterTendency,original_glcm_Contrast,original_glcm_Correlation,original_glcm_DifferenceAverage,original_glcm_DifferenceEntropy,original_glcm_DifferenceVariance,original_glcm_Id,original_glcm_Idm,original_glcm_Idmn,original_glcm_Idn,original_glcm_Imc1,original_glcm_Imc2,original_glcm_InverseVariance,original_glcm_JointAverage,original_glcm_JointEnergy,original_glcm_JointEntropy,original_glcm_MCC,original_glcm_MaximumProbability,original_glcm_SumAverage,original_glcm_SumEntropy,original_glcm_SumSquares,original_ngtdm_Busyness,original_ngtdm_Coarseness,original_ngtdm_Complexity,original_ngtdm_Contrast,original_ngtdm_Strength
0.0077842431852121,-0.2179619036749243,-0.411590257972672,-0.5758047298442528,-0.2715431611315091,-0.5834291796341994,-0.5043691993511993,-0.0912259136022949,-0.1693296732900826,0.5208187768224422,-0.7358756684346421,-0.5570957717950565,-0.1259738575161764,0.0952913215544067,0.3269688124327169,-0.5215508035147158,-0.2309422263369343,-0.5877401039852292,0.2998325937720856,-0.529927211768237,-1.1394312743238046,0.7211663867450224,-1.1499074886111773,-1.1866152634504272,-1.1686072261156248,1.151405707933957,1.1512948994086056,0.8221564791262953,1.0843552535130754,-1.1556292392060417,0.7333989265642971,-1.1502183009274296,-0.1360648315340457,0.7118143565372533,-0.8427605685246933,0.881793462502615,0.7799576568520661,-0.1360648315340457,-0.6579648011979247,-0.5732191250038916,-0.2874457237025915,0.1401211451220696,-0.948337480880801,-0.8289295482104158,-0.1571763560234709
2.0263649118973097,1.555682289588204,-1.3773036562094418,-1.2757329005258398,3.18086844983735,1.6947228551279143,-0.9732270822726836,1.8914111105831668,1.779446917557184,0.5208187768224422,0.5767944566316401,-1.1799783586430252,1.8687371057989195,-2.2090215488759584,1.7573540910746066,-0.6329493274227698,1.278000403170542,-0.1599866197011615,-0.5052997457293714,-0.7222695156555899,-1.7095619441417074,1.162324513198285,-1.849231071239864,-2.0625282278336057,-1.871239943375805,1.9000528872863345,1.8817485894553063,2.5014086486132747,2.475518670164869,-1.7722960635549754,0.5724191058751407,-1.9826476589544115,1.323478697343185,2.455560668293676,-1.8842895968798232,1.249084218347423,1.818711556522913,1.323478697343185,-1.818223070221584,-0.7884917087443003,-0.1065505453908391,-1.1048563310625923,-0.709759292105018,-2.169160402358594,-0.2640881315783361
-1.137896676894627,-1.5140865064441331,0.0306184600972224,0.2407781359509319,-1.020430969421251,-1.152967188324728,-0.0359017071252709,-1.5145526765980557,-1.630912116425533,0.0932128724475709,-0.7358756684346421,0.2374772315452454,-1.5430560231168422,1.0311227547709052,-0.3699197082186229,-0.3300345948673475,-1.1289325188534904,-0.5764263861992265,0.7364615248844816,-0.2625000407600519,-0.7282550546663908,0.58251117741652,-0.6604860915401559,-0.6518467901184005,-0.7101160693499233,0.6317483552843404,0.642904478821256,0.1972756553217741,0.4205727073110265,-0.7524888146293064,0.7350900674690762,-0.5788512080967865,-1.213846884935814,-0.1122602137588,-0.2766714823393843,0.6268812224653468,-0.5376920192068564,-1.2138468849358128,-0.0649704523908151,-0.2914970834126974,3.554103458845645,-1.3513168782473344,-0.8129408917187774,-0.0812782790225618,-1.3582407757280173
0.9352402261069868,1.9649847957258488,0.6574248165192885,0.7073969164053232,-0.5176130344822284,1.196377097523702,0.5677697133102927,1.655356432310056,1.6576483806292297,0.5208187768224422,0.2896478667733908,0.6580990289721469,1.688652106273819,-0.1361042149619183,-0.7086360873754672,0.4582132661212308,1.1857444785247615,0.0586576226282149,-0.1466172563646432,0.4364149774171426,-0.1943576167148334,0.7086380617057644,-0.1409015946432275,-0.0428701174642902,-0.1223314071739831,0.1207742026107066,0.1275388035065378,0.4068409668478752,0.232005283944946,-0.4776346117619846,0.8250759299517385,-0.0884377980389835,1.1893243581144453,-0.3958366305952308,0.3692232863329329,0.6148366450015335,-0.3183307741853574,1.1893243581144444,0.5379071011765215,0.4198525843171525,-0.3938210534584457,-0.2575055752649383,0.0714025260147141,0.2494813505811755,0.0603496874090565
0.0623404774747282,-0.0815277349623759,-0.55065480957205,-0.5758047298442528,0.6152090556589275,-1.010582686152096,-0.2237045862398804,0.2764785397081878,0.4396630113496881,0.0932128724475709,-0.6538337856179994,-0.352061949773776,0.2633902329011334,-1.3449512676762074,0.8370091396372513,-0.2092092034042536,0.051333865278907,-0.106811701698856,-0.6088653988354916,-0.2081226780724427,-1.779539369252099,1.5743327184626894,-1.9185634288982032,-2.186245790732616,-1.975778165271844,1.9699635539481384,1.9511583026487689,1.7959198875701223,2.1278785094294914,-2.240809523012421,1.1510469228211793,-2.0545801042674245,0.1404229261846246,1.7690994859812104,-1.4133822477706146,1.483915896697696,1.6925436906080211,0.1404229261846236,-1.195275958707858,-0.2865279568088328,-0.73470510516279,1.0112694778002929,-1.3657774502424804,-1.3171375335517157,0.6468462521470967
0.2805654146327929,-0.6954814941688434,-1.1151508656472475,-1.042423510298644,0.014345364713829,-1.3665439415836762,-1.084168719137646,-0.073035965038788,0.0133681321018485,0.7346217290098778,-1.3511897895594618,-0.9588207720707924,-0.1416180132328236,-0.37563970338103,0.9523267568219884,-1.0644577409062494,-0.1997137463743577,-0.8105039292908028,0.4390910511426169,-0.9752877323445216,-1.1310571558937204,0.1557161117176869,-1.1616607626407145,-1.1599586175595755,-1.1443073172741178,1.1715354142991123,1.16806801219873,0.8127241068212461,1.1035807145263865,-0.6650468874689202,0.0280594539439396,-1.1858211741663678,-0.075853937575563,1.1770669026124343,-1.2901635218845855,-0.0177794317785215,1.0818763632328263,-0.0758539375755619,-1.245223016170581,-1.010434657104172,-0.8455131473709554,1.65298894974586,-0.9431124195383244,-1.2900478089625225,1.1971766524833658
-0.8105592711575301,0.2595576868189948,1.1917986390148962,1.40732508708691,-0.3430637427418642,-0.2274679242026191,1.3254049252479525,-0.0649904500557675,0.2569652059577569,-0.5481959841147359,0.2896478667733908,1.2575842158007076,0.0124200217046212,-0.6379126838078027,-1.081224342580476,1.281696147218842,-0.1056543440175788,1.0808988474508745,-1.2847712570420202,1.3502660233963646,-0.7687813113078611,1.493203341957943,-0.7220765009275404,-0.7000115678534398,-0.7504042155261809,0.7019297243805473,0.7096877539317447,1.0690053694231445,0.9203314863921962,-1.3593046862177405,1.404639505903164,-0.6646391830656115,-0.1135017114963505,-0.4881212922616213,0.4293000829281214,1.3966387401692346,-0.2518277649108666,-0.1135017114963505,0.8325467048330611,1.2913036106593052,-0.6970534827954997,0.9021694621208776,-0.5033458511493107,0.5228413860286375,0.6064542925590628
-1.8471277226583367,-1.1730010846627623,0.900782041341342,0.824051611518921,-0.6226319865088179,-0.6546214307205155,0.919450115300796,-1.337239340935113,-0.9610201633217847,-0.9223511504427484,0.3306688081817121,0.8500076247365114,-1.2856271696370891,-0.3436558637019765,-0.9391437148331284,0.8025501611090922,0.1290466747813273,0.4455088674158659,-0.6937590702539664,0.9032363365164378,-0.2733073750896582,1.028068989710362,-0.2186781112064118,-0.1259898759768103,-0.2021384460299881,0.1965477069665639,0.2048353791226364,0.4987472520452375,0.3236730629767224,-0.6587469452065526,1.0250010061212458,-0.1575234596997368,0.1604207297645804,-0.644802231895807,0.5211336127671012,1.0733926638709466,-0.246822325762646,0.1604207297645826,0.7540198250968331,0.8749017550952741,-0.500644354518873,0.2066485211775966,-0.1640657752354633,0.6488917247412032,0.1672693786673285
0.7715715232384383,-0.7636985785251176,-1.8462276159879767,-1.3923875956394376,0.2305171724425629,-1.7936974481015724,-1.645939238748863,0.0147482357451522,0.0133681321018485,1.0553261572910313,-1.8434410864593176,-1.456224447866732,-0.0784436791151148,-0.1621070326021803,1.7019705242549008,-1.474751550881764,-1.2349415632716758,-1.0047937669318296,0.6942208938425788,-1.375764115359559,-1.0018200504764518,-0.8929238965890761,-0.9897031229963552,-0.9958832358836652,-1.0076057504788238,0.9825922166749298,0.9856364851313512,-0.4933093509751778,0.3865524871690528,0.0419539110526686,-1.1207725016618213,-0.9669275027422624,-1.2723300420185653,1.51542472604273,-1.6914687189814617,-1.0505495999236472,1.61963254595719,-1.2723300420185653,-1.7781330727397586,-1.3979766107818743,-0.3363611564846207,1.1398073020402144,-1.2341185497822236,-1.0325451035610806,-0.1192854689679182
-0.7014468025784979,-1.377652337731585,-0.3594314313843846,-0.1091859493898615,-0.7381829425829897,-2.1496587035331527,-0.3809081833413102,-1.1308296934601705,-1.082818700249739,-0.4412945080210181,-0.8999594340679273,-0.1340379458403008,-1.1786056417384163,0.506084237573273,0.1000946603764346,-0.621458111748458,-0.8958129274803583,-0.6716522623700547,0.6059060556322182,-0.5714713961518421,-0.8923428459811172,0.4233220470779754,-0.8954984562410216,-0.8436000338645718,-0.8665245348610391,0.8952646249133925,0.8953676340163561,0.4526635457670609,0.7453148899722103,-0.751447699221968,0.5242653177234661,-0.8932192828772896,-0.8965603076021882,0.3991560273488413,-0.6448237027747221,0.3073244531281314,0.2230350646005659,-0.8965603076021893,-0.5116809669574035,-0.6026495401332538,-0.1449472882778214,0.2692680422076522,-0.9298568679392906,-0.6857206273375239,-0.3408155024668824
0.7170152889489221,1.0099456147380106,0.1014229711726198,0.0074687457237362,-0.7654814237608343,1.196377097523702,-0.0527143855776363,0.8936014685736661,0.7441593536695735,1.162227633384749,-0.2026034301264649,0.0978320174303229,0.8828942287059526,0.6788085618024199,-0.4056198927161828,-0.2424078829822768,-0.6488367946469327,-0.5015606944537847,0.5981198384363826,-0.2031752782534814,-0.1697991581045583,0.1510945289873844,-0.1499575742828022,-0.0204648168766692,-0.0751057077101671,0.1435047759025993,0.1449553996655886,-0.6273149946738907,-0.2486036044293711,-0.1096056111002183,0.3548267762599323,-0.1357920131322106,-0.6225872495951765,-0.358096587262355,0.0719306895378755,0.0178919674541261,-0.7530291310905913,-0.6225872495951776,0.1332068903654575,-0.207462810357538,4.701406327474389,-1.5357489485405338,-0.6831406869940193,0.3154835595188914,-1.4501484576632395
0.5533465860803737,-0.0133106506061018,-0.8652531602370772,-0.9257688151850464,0.631255806067644,-0.7258136818068316,-0.8756106369853066,0.390334427824747,0.5005622798136652,0.62772025291616,-0.8999594340679273,-0.989512085299512,0.3443898562435725,-0.950482252461984,0.9748143660462554,-0.7702469961037798,0.0914804160519048,-0.6433063790387765,0.1955746037741392,-0.7848247204237606,-1.1109881632413516,0.4030533017969058,-1.1298224454425276,-1.132803456002178,-1.1243625826382762,1.1350158086203088,1.1333250825468568,0.7809040827337114,1.0592119102181148,-0.775966648615923,0.2526742834974992,-1.141090806625271,0.2163883504516355,1.237434711859164,-1.122835116911491,0.4350190721257469,0.8929663017637705,0.2163883504516355,-1.029926003529113,-0.8223647305915861,-0.8497277894348825,1.5144656127187646,-0.868066874000785,-1.0247081496495152,1.2989241839139885
-0.1013282253938201,-0.4908302411000209,-0.5847659098889324,-0.3424953396170571,0.0590960620651038,-1.224159439411044,-0.3923665738701161,-0.0134348481720974,0.2569652059577569,0.3070158246350065,-0.9409803754762488,-0.4319286216514251,-0.0452758455489223,-0.9156625773338306,0.4512960188097896,-0.4838348275222655,-0.1787327117614451,-0.4654527078319042,-0.1180325700208385,-0.4018614647151245,-1.3459739753737594,1.0404574765049333,-1.4020843732176806,-1.4735252055209975,-1.4100740485669956,1.4214307346521688,1.4145758044690853,1.1369548811442485,1.427336626672374,-1.4004936241311643,0.7723140427351531,-1.4512007850388633,-0.0883313498053241,0.9554691802609304,-1.1043311193637702,1.0560144637285906,0.4886665756264798,-0.0883313498053241,-0.9340107648709574,-0.4569054759174353,-0.6311527429857678,0.8144727950201438,-1.067665023105932,-0.9444801556928356,0.4758194156328226
-0.3577425265545362,0.3959918555315432,0.9173965611616504,0.3574328310645297,0.416320548789839,0.1284933312289612,0.7092765378060116,0.184449520923658,0.317864474421734,-0.494745246067877,0.4537316324066761,0.3928716028231603,0.2345837361458561,-0.9220296580201376,-0.7450806350949275,0.8414128548903291,0.042878685193791,0.9760565582067128,-1.237693807989702,0.886303098612151,0.2115888853203806,0.7258784565106764,0.331880610802814,0.3310323825473727,0.2184265541619851,-0.377637648863264,-0.3613791313601419,-0.0668109184584452,-0.3367747687657488,-0.1327238190217683,0.7369945911650041,0.4534806928400807,0.0736327325173338,-0.737928965802022,0.7860909255730002,1.0151739750694218,-0.6607821824244459,0.0736327325173348,0.9381084656898104,0.8806157101239946,-0.6078900601516078,0.4700140477248134,0.1384616832247967,1.244246241919419,0.4400567969403265
-0.5377780997099494,0.0549064337501723,0.7626674923023818,0.5907422212917254,-0.0106359400472935,0.2708778334015933,0.8640543565494709,-0.0479430974256766,0.1960659374937798,-1.082703364583325,0.9870038707148532,0.7736602088631848,-0.002928687563686,-0.673766754324731,-0.6116536497619527,0.7580823057764268,1.149614568256206,0.5112588197260745,-0.8484454854989514,0.6869856478265413,1.050149924173621,0.0765289422470235,1.0056712627096178,1.0370859392979637,1.086835932022684,-0.9873378030764672,-0.9938021186835554,-0.0276512936648641,-0.5807820287013358,0.6034976020604041,0.1219666821631079,0.9551339910642253,1.1477595409379513,-0.6964764818481324,0.9621623534396132,0.0135422159360444,0.0811478355408785,1.1477595409379502,0.8464903937608947,0.7234257370538951,-0.5428509304518815,-0.4282744327896064,1.2806332078677465,0.5771448705025236,0.1757052254463137
-0.6468905682889817,-0.4908302411000209,0.4199155708433198,0.824051611518921,-0.928541412592774,-0.5122369285478834,0.4583076908842677,-0.7556611550082353,-0.9001208948578077,-0.0671393416930057,-0.2436243715347863,0.6849203355097285,-0.7489401205894494,0.9360918359292894,-0.6202492012401988,0.1650140831573274,-0.6256733766185492,-0.3081435028857514,0.5930163304600464,0.1551797151176898,0.1968766095984913,0.2079355514980714,0.2286056085860593,0.323986694334717,0.2783196015829154,-0.241248159387676,-0.2361872067178907,-1.1713572543035256,-0.753830759318667,0.0877144952149056,0.3614680379678773,0.2642109456627878,-0.6178342710091926,-0.5703165263652027,0.4257177575412844,0.1319635397064772,-0.4734268829650445,-0.6178342710091936,0.4611084293977531,0.1615515998160291,0.0106693189464189,0.2192394304010306,-0.5177093243222995,1.3555770169292287,-0.416329769422237
1.5899150375811806,1.214596867806833,-0.2371254758213551,-1.042423510298644,3.584762972319117,1.4099538507826503,-0.4930359903775609,1.4299492319362237,1.4140513067733214,-1.1896048406770428,1.725380816064637,-1.0351479992425003,1.4344988419537297,-2.2681716276580515,0.6259562652769469,-0.0442697579892867,2.439798994771424,0.7068844194543896,-1.1720619547094664,-0.0787444719097903,0.6951147707222576,-0.4233818118046985,0.7465045241844689,0.7466474902356283,0.7028459988992689,-0.7656550612230367,-0.7584522907432304,0.9401611869891184,0.0962361935086182,0.985106207208332,-0.8334410032339533,0.797900864712158,2.2493665485959813,-0.0264077186500503,0.1957589741642148,0.4216586547611828,0.5424450330297675,2.2493665485959826,0.0228270078301169,-0.0453300086288413,-0.7921424796656937,-0.5539775202653563,2.273059774008342,-0.8665177899839478,1.4331398626438718
1.0989089289755352,0.2595576868189948,-1.134305485756131,-1.042423510298644,-0.1929705182915765,0.1284933312289612,-1.1762583104052071,0.533151517208518,0.317864474421734,1.269129109478467,-0.8999594340679273,-1.0123506260138908,0.4668880759063922,1.0928133355680494,1.163491664119946,-1.136465370782235,-0.9151347712199616,-0.8779939367603684,0.9047259001594292,-1.1139451267610356,0.1058821339890976,-1.7402045254803993,0.154919724109081,0.2431794628960519,0.175381456330003,-0.1731028238235439,-0.1668514789126084,-1.0412902898280134,-0.6587633385328522,1.047870448336587,-1.594156454506389,0.2023733708819154,-0.8797510540200191,0.5616307126234663,-0.6360235242363279,-1.5249984448185925,0.9165402419385464,-0.879751054020018,-0.8502719478118498,-1.089657400263546,0.9053883607617632,-0.8302899070970232,-0.4260378587844612,-0.5984016036713776,-0.9417406380200865
0.0623404774747282,-0.3543960723874726,-0.2328919099086684,-0.2550043182818588,0.0167954649251299,0.2708778334015933,-0.3777255090687982,-0.1142791907272086,-0.1084304048261055,-0.0671393416930057,0.2076059839567481,-0.3488311253152478,-0.1450456662979513,-0.0355344584202745,0.1142073572033997,-0.4554161393216061,-0.2451967434351852,-0.5360252611573305,0.3260584944977128,-0.494761979886181,0.6222857445176542,-0.9542976807369784,0.6091503502482074,0.6994089573611522,0.7064770560054601,-0.6039756893784168,-0.6053078207849911,-0.5217692494814558,-0.6462990447486711,0.9589127137804108,-0.7919008490374315,0.5962589809159998,-0.1485664776764036,-0.2810466970589579,0.2009601968231518,-1.0957330981409743,-0.3641537493682639,-0.1485664776764025,0.0253340475484192,-0.4574569437869885,0.017003555100702,-0.6046232013888204,0.2998560832700951,-0.2597472511077628,-0.483278139086183
0.8806839918174706,0.4642089398878173,-0.4952955669180002,-0.6924594249578506,-0.0429479842208698,0.6980313399194897,-0.7346296229374675,0.7443830630105626,0.7441593536695735,0.5742695148693011,-0.0385196644931797,-0.7154652176771206,0.7032516250850053,0.0552375975926671,0.4289383756896366,-0.7472541490017941,0.3891207016099628,-0.7176599910078026,0.5571251909558301,-0.777827364963272,1.2973591742330195,-2.2017473740776365,1.2693933038070009,1.2115782222456146,1.2523338681995442,-1.255429319244871,-1.261011563346601,-1.2973095518561413,-1.4251117045930144,1.8232937132725584,-2.1356906646638314,1.227424692199219,0.5182848587655837,-0.3899962081948593,0.2798547199724432,-2.423155762184102,0.0300369337824129,0.5182848587655837,-0.0920852613095118,-0.7044720763684593,0.0715950446274193,-0.8337300739676747,0.8401842564661907,-0.188124091555931,-0.4985064483669114
-0.7014468025784979,-0.8319156628813917,0.1916520209309905,-0.5758047298442528,0.0689969985615699,-0.7970059328931476,-0.1627714774473053,-0.7240469231655122,-0.6565238210018993,-0.5481959841147359,-0.0385196644931797,-0.4017284365114604,-0.7360284635771903,-0.1492340649292707,-0.1770723555950006,-0.1177056265915408,-0.6292737088618454,-0.2534034137292386,0.0677080560927263,-0.1628113501240012,1.0184118466260514,-0.7918712773974758,1.153291672689114,0.9670876554549253,0.8759516562045193,-1.203858174825548,-1.185552766356876,-2.4124023944257926,-1.9998242252197007,1.137134244801726,-0.7148548259422498,1.287624071616852,-0.598726494145786,-0.7684231497562378,0.6697098958837201,-0.5129591721748048,-0.440255257703665,-0.598726494145786,0.5065005412295445,-0.1130293191095484,0.1311582244883083,-0.1511242405463303,-0.1190241336196154,1.8101767916063047,-0.5175126255571834
0.6079028203698899,0.2595576868189948,-0.3489830116603014,-0.3424953396170571,0.3169821515291143,0.3420700844879094,-0.4054030965809159,0.565706822900051,0.6832600852055964,0.2535650865881476,0.0025012769151416,-0.4080798921987602,0.5383295029952632,-0.5516008512944021,0.4130261420240202,-0.4841750277008843,0.2595713003881474,-0.5073552254154872,0.1333830572359369,-0.5630712304469536,0.9666185324268616,-1.4024673567244783,1.0664054321115737,0.9534863525666996,0.8733785013601846,-1.1005416453943937,-1.0900712720200707,-0.9337004862511942,-1.202631797769914,1.4418298325191057,-1.4857789891522395,1.149120667189638,0.3783541032624714,-0.2188188878345884,0.2458325729256587,-1.44498507162416,0.4301304646158739,0.3783541032624692,-0.0168973130244191,-0.5087034724831931,-0.5644164783604425,0.0125228124023017,0.6941490338950171,0.0315834681320526,0.2351278256290029
-0.9742279740260786,0.1913406024627207,1.4888570270760952,2.223907952882094,-1.2142058476722353,0.4844545866605415,1.6373928210707818,-0.7557452704705264,-1.082818700249739,-0.4412945080210181,0.6178153980399613,2.0133039624908284,-0.6710966295637429,1.5296575612454275,-1.51437281076459,1.342871217612137,-0.5757310052119691,0.5952829286185183,1.1591685859769725,1.4442133673919195,-0.4674214353019712,1.3623075062429022,-0.3687303438221544,-0.3505404675985388,-0.4406178765460444,0.3285455218536009,0.3437731730480757,0.7171929154645136,0.494941889399085,-1.0936952215419358,1.394208046783006,-0.2570257567013036,-0.6459503532384426,-0.9942351627763064,0.8209017110153297,1.2575931237496507,-1.069294017323718,-0.6459503532384426,1.2330386548405134,1.397505964124961,1.7240364127968624,-1.0436846298105666,-0.3173225731696183,1.0672751184058946,-1.0105368947558546
-1.137896676894627,-1.7187377595129558,-0.2010816667271719,0.0074687457237362,-0.9429614046206302,-1.010582686152096,-0.2621458604020223,-1.562336406965486,-1.5091135794975783,0.1466636104944298,-0.6948547270263208,-0.0591822549993624,-1.6030319439677014,0.8434268971574255,-0.1223230768234905,-0.4971951022704929,-1.1700897852271888,-0.6820621794008523,0.683331891113628,-0.4767313900615888,-0.068223829399169,-0.2734409058199004,0.0917685603773383,0.036668745196435,-0.0839919972689964,-0.1550856849422378,-0.131492290694418,-0.8009226528016469,-0.5946086289357655,0.282128979612192,-0.1140466671688405,0.265010471194003,-1.2498968610252197,-0.3527208723852706,-0.0433366361495701,-0.3424337897029222,-0.758892950693476,-1.2498968610252197,0.0103653194730298,-0.4715707889941092,3.3541830301318662,-1.3501217624330384,-0.4771959203012733,0.3133474776088502,-1.3399497788212589
1.4808025690021482,1.0781626990942847,-0.8888091461326335,-0.8091141200714485,-0.0482442128777617,1.6947228551279143,-0.8950363467917046,1.356540281605748,1.23135350138139,1.696735013853338,-0.3256662543514289,-0.8968582207466197,1.3164862545326936,-0.1483351775495414,0.6755698613603919,-0.8438079836665356,-0.3570124463840191,-0.7372952434328988,0.3812165482453046,-0.8064550749451682,-0.9539309123452964,0.1935752216464478,-0.9524499360249562,-0.9188278293346012,-0.9362234618046256,0.9493823241200008,0.9510893805410636,1.286973880605348,1.199217391257964,-0.5718184628640232,0.1486241476697443,-0.9401429224482328,-0.2558210066892349,0.8150180883725365,-1.0099420958484258,0.0159563152558054,0.9275933675690768,-0.255821006689236,-0.9399428222356762,-0.8363784029016719,1.147289548268176,-1.269942597545961,-0.4699173295194076,-1.4711380769465785,-1.0165271349047822
0.3896778832118252,-0.0815277349623759,-0.7381633510777886,0.0074687457237362,-1.069831308677584,1.6947228551279143,-0.4555615920079465,0.1858149201476146,0.1351666690298027,0.7346217290098778,0.4127106909983548,-0.0878732478636134,0.1406846701465327,0.6752508178771816,0.441299336298788,-0.7256215010635827,-0.0538918588687407,-0.8186535403634099,0.6138329375462347,-0.7429147278585089,-0.825236164738931,0.1362649059951383,-0.8285615313554854,-0.7573608949229969,-0.7758489550035778,0.8266087052778552,0.828430191880763,1.6836674914529008,1.3709674716530886,-0.4728955042376157,0.1712422127096424,-0.8174333679445003,0.0650131690204994,0.6479241868601379,-0.8409876388717632,0.1747470750387075,0.3946090824249377,0.0650131690204994,-0.7736999051474449,-0.7680126196980562,1.8595790828469243,-1.5610431509624885,0.1159646222443082,-1.6959812823590992,-1.1641152165503064
0.2805654146327929,2.783589808001139,2.090955977433189,3.5071095991316708,-0.7408950485499289,1.6947228551279143,3.01245032517546,1.5633742962967092,1.5967491121652526,-0.9223511504427484,1.6843598746563155,3.415104706832784,1.7384778053300836,0.0710083883342655,-1.8991806183764544,3.112674819439065,2.765983637038504,3.005908408523461,-1.6547425389441712,3.1596715497268235,0.4960793677861591,1.420657951546624,0.443658612612082,0.6010334675255873,0.6309122326742669,-0.4211062665680273,-0.4299942082062268,1.0925892267184674,0.4004665501495368,-0.7630383755593881,1.4215857193209376,0.3792001998840091,2.360228784963746,-1.2856206992531212,1.5188157753301612,1.3461660051631756,-1.087093045914775,2.360228784963746,1.755146430080862,3.1274921740834296,-0.3324157083308701,-0.9254214462801944,1.43366893307235,1.1934202219548964,-0.1416480611419979
0.8261277575279544,0.1231235181064465,-1.1274833410214098,-0.8091141200714485,-0.6498260843122046,-1.29535169049736,-0.9892128402361446,0.6468791284051776,0.6223608167416194,1.9105379660407733,-2.2126295591342093,-0.804206063891624,0.5872605759936108,-0.0311118600071234,1.115646335831792,-1.046060636637244,-0.863793893450513,-0.8385157610678005,0.5471420595365962,-0.9759205361752687,-1.7242702839099204,0.9289224578376228,-1.8522214767376977,-2.08732052822153,-1.90006211606916,1.8993239915454647,1.8821283605578425,0.9905364749043988,1.7237951798327376,-1.8427187330609305,0.731610178706886,-1.9765527094114173,-0.8323322484074317,1.8429432026454609,-1.7089378966733453,0.8664848140532377,1.4393450087631383,-0.8323322484074317,-1.5853024487892036,-1.0384016878072222,-0.8400212898143664,3.354924101090858,-1.545957968293654,-1.3298744717998023,1.0143483479955762
0.335121648922309,-0.4908302411000209,-1.140355904498399,-0.4591500347306549,-0.2927605779555312,-0.9393904350657796,-0.8232502812051365,0.0754647839722733,0.1960659374937798,0.62772025291616,-1.0230222582928914,-0.5888834551755843,0.0171351162284488,-0.2976158151230493,0.854383687921078,-0.9237642783279876,-0.1057821682385609,-0.8257074197972039,0.4159429893994049,-0.9168322026341228,-1.1483829118814053,0.266281554391331,-1.2019888899241498,-1.1843184726905849,-1.155344380298512,1.2214338594554892,1.2140999378057469,0.8418581293200322,1.1612798033610208,-0.7474763641825837,0.0596218307851885,-1.253475501202408,0.0200246334578746,1.1940617034978274,-1.3529354927341102,0.1269916881792086,0.6650260108512084,0.0200246334578767,-1.3354600424049663,-0.9537961887480332,-0.8295546735596491,1.483923199027568,-0.9932362332488648,-1.298652163434867,1.0543897718266249
1.1534651632650514,0.0549064337501723,-1.5732266665915726,-1.159078205412242,-0.350124707509186,0.1996855823152772,-1.3977863335998826,0.6953772858382447,0.6223608167416194,1.696735013853338,-1.1871060239261766,-1.2438967478066358,0.6207888984949764,0.559030088779241,1.6214152337760273,-1.3115581169770842,-0.8283846759683674,-0.9819418250859804,0.7682428141878879,-1.311759615779467,-0.895515250817128,-0.8824479492906865,-0.9006714840345086,-0.8497800344329882,-0.8691896158892389,0.9010564927454708,0.901034699811244,0.4579542098385374,0.7525093645937743,0.075354646388794,-0.9297637387769412,-0.8996596935000262,-0.7641641824443652,1.551263592601871,-1.4362259872187262,-1.0233567990964787,1.1917226095330926,-0.7641641824443652,-1.5122937396109652,-1.330186867320104,-0.7551059405438578,1.516734172567619,-0.8918946651996826,-1.501686918597816,0.7457345849990161
-1.083340442605111,-2.2644744343631493,-0.8848282242871722,-0.4591500347306549,-0.7131214984863162,-0.8681981839794637,-0.8238598773150559,-1.7285586783188862,-1.5700128479615556,-0.7085481982553127,0.0435222183234629,-0.5056602043519929,-1.805005762927,0.7439465259813043,0.5436300706945504,-0.9746969976966244,-0.2560364104338877,-0.8814482544006321,0.7651565178682112,-0.9386159291529564,0.07234576556995,-1.2486538555153608,0.1484706157512673,0.2134460348646339,0.1302090708536367,-0.178533623630849,-0.1672037066974034,0.0992606682302781,-0.1137354216840118,0.9165171643312928,-1.2132956765650371,0.2310468234979721,-0.1350194719711577,0.0880204046958735,-0.449824378394046,-1.3336055100352928,-0.361188050508067,-0.1350194719711566,-0.5929052039911579,-0.918928668071596,-0.3824011142453142,-0.1371063241323029,0.2073685644517987,-0.9893661795254988,0.0612657290377978
-1.465234082631724,-0.96834983159394,0.9635946260637784,0.7073969164053232,-0.7453426685035475,-0.7258136818068316,0.7274059726204074,-1.4926483571586404,-1.5091135794975783,-0.7619989363021715,0.1665850425484268,0.734996281640219,-1.4546508755447511,0.9602852413736316,-1.0753464414754013,0.5977408680631788,-0.0006463941127223656,0.1093204083268674,0.5607079509450371,0.6007600672790478,-0.6158669181548353,1.0923709638629997,-0.5542122452437123,-0.5126198737511853,-0.5829549796930666,0.5287666163530553,0.5382906147850272,0.891417423360075,0.7196627400184911,-1.0080201885706168,1.2004166618991805,-0.4833828000829272,0.0426263546641336,-0.6566944598446638,0.4008010278096904,0.8390372899806049,-0.721834766229946,0.0426263546641347,0.7392109046794567,0.5619042446176012,-0.642737396072691,0.924689127366556,-0.3701430145957893,0.0358829372607887,0.717859340281382
-0.1013282253938201,-0.6272644098125693,-0.3234362847052482,-0.5758047298442528,-0.0190283718054738,-0.2986601752889352,-0.5640310200840254,-0.5307928781673911,-0.6565238210018993,0.0932128724475709,-0.2436243715347863,-0.5935056836900335,-0.5717378406521344,0.6944838627481066,0.2465306346178124,-0.5717078839941698,-0.5475625788048921,-0.5871849689793316,0.5983327070009579,-0.6017947009238886,-0.1879334782088967,-0.337159442019633,-0.1039017821557231,-0.0520994072913482,-0.1467871286996041,0.071469569100176,0.0829368559680425,0.396387066727238,0.1838807434725368,0.2411140571305151,-0.1860024744141815,-0.0173398701021737,-0.4797631832506979,0.0649727559305283,-0.2113674779816765,-0.4840062352454339,-0.220423890500653,-0.4797631832507011,-0.1964575755662249,-0.5999735124427862,-0.8622336913206646,1.5538273604585608,-0.0593465744454035,-0.7915739749167594,1.4924541051274918
0.1714529460537605,-0.6272644098125693,-0.8946472804811237,-0.9257688151850464,-0.4105435535582736,-1.152967188324728,-0.9609181165628312,-0.1546263835569009,-0.1693296732900826,0.7880724670567367,-1.2691479067428193,-0.8797657691206775,-0.2184576603767268,0.2928278335149034,0.7422871532112818,-0.9758561943318677,-1.298018868895138,-0.8302135778756682,0.5926313408853147,-0.9404706925113272,-0.5919717771321166,-0.4587479006429734,-0.5785416861166592,-0.4924547935480109,-0.527044924902484,0.5708226158888992,0.5745784416723075,-1.3087436530916954,-0.2363200693426143,0.0316095322535561,-0.3774896890803242,-0.5529073692968929,-1.3881419312373873,0.6960832567118888,-0.8306112741384589,-0.6602465031997828,0.9317857124500878,-1.3881419312373866,-0.8474598968379933,-0.951374058527094,-0.1381965414396339,1.0288658475121903,-1.1881705845751034,0.0251710770896826,-0.4028696193763776
-0.1013282253938201,1.2828139521631072,0.5953462346439351,0.3574328310645297,1.4227731891924564,-0.3698524263752512,1.379850079645105,0.9624843511332464,1.3531520383093445,-0.8154496743490305,0.4127106909983548,0.5717379522987415,1.0785112121194202,-2.1643152310318947,-0.3247050457297858,1.988464319162812,2.129807260782487,3.5756929239497475,-4.404557761300326,1.9747561268306817,-1.498862742340184,2.017374176674611,-1.6034269013653977,-1.7138043693808225,-1.5961616995875962,1.642031664085884,1.627790092411635,2.3052605772203667,2.209406104319931,-2.306654320269073,1.5309323534079806,-1.7057630705372986,1.909548487485768,0.7109717879378684,-0.5504350249294236,1.897016384709289,0.5294008185996241,1.909548487485768,-0.2006508300823181,1.871259543949056,-1.2976134213591546,3.914219591968079,-0.6049915273555142,-0.8267888238515113,6.712148769971479
0.662459054659406,-0.8319156628813917,-2.2540725851704986,-1.625696985866633,-0.525313869966133,-1.7225051970152565,-1.8422632026737311,0.079022263068244,0.0742674005658256,2.177791656275068,-2.663859914625744,-1.678030044750776,-0.0206920988657351,0.3163100643583961,2.2113070669635446,-1.5935010317058342,-2.028163682490648,-1.0830331238346622,0.8152039801435047,-1.558818818187263,-1.0086799925048469,-1.5000300542796017,-1.001283774304715,-1.0100473140018,-1.0178390142238631,0.9961124892799048,0.9983836475810434,-2.2721277123336296,-0.2329899933807986,0.3310582430698829,-1.8052772527124472,-0.983998790409493,-2.450611265303462,1.9253261077225048,-1.9488756956386288,-1.5082534448890166,2.150681580754181,-2.450611265303462,-2.1056353557417005,-1.578158398539701,0.305570651700275,1.5540118721390046,-1.5683359981263805,-0.5476117937384418,-0.6928026351877533
-2.119908894105918,-1.855171928225504,1.1265628913565535,0.824051611518921,-0.4736222637633782,-0.9393904350657796,0.8296410195810329,-2.1409169893692077,-2.057206995673372,-1.8310136972393496,0.8639410464898892,0.7459164668487053,-2.085135309565489,0.4411045023601788,-1.102244877743099,0.7699505127025742,-0.4385953745004485,0.438378485828593,-0.0315181337379658,0.8313439890643922,0.0364748125345458,0.8010211309270848,0.1008676801395332,0.1745530025587862,0.0980963727954824,-0.1258004079927926,-0.1166687444691523,0.1411771920723867,-0.055684093626174,-0.3933280545480692,0.9663290144352784,0.1683459444587786,-0.4463924411162948,-0.8679925127078032,0.8582979598480657,0.6028655925184232,-1.25091862694136,-0.4463924411162959,1.0720781201022491,0.8185418798547481,0.4156950529424046,-0.6435261435312283,-0.1402878985231664,0.8044815566329344,-0.6786862006493323
0.1168967117642444,0.2595576868189948,0.3870460163990699,0.3574328310645297,-0.3019346148551088,-0.6546214307205155,0.204638140858479,0.14233935459171,0.1351666690298027,0.1466636104944298,-0.4897500199847142,0.2678210270952697,0.144143417109381,-0.0272025398158701,-0.520695756278307,0.0479855480581719,-0.0244302432294186,-0.1414560047585872,0.0974486265538875,0.0930164165121916,-0.1414841673101334,0.4106383460713208,-0.0491904007506138,-0.0062662735807733,-0.1018995628881566,0.0128336236890113,0.0262262244516653,-0.6805222099684475,-0.3954175316934621,-0.207419258684333,0.5548512837872113,0.0498535790657222,0.0487870169987194,-0.4521241318184792,0.2753991159259033,0.2954146507594503,-0.6701992223072551,0.0487870169987194,0.4145195852235824,0.0848739327890623,-0.5029227114108379,0.8505068345464625,-0.475367422211062,0.9846147192603,0.2928968245615399
-0.9742279740260786,0.2595576868189948,1.436535743805506,0.4740875261781275,0.1331088385537465,1.267569348610018,1.1466781311466103,-0.299571810684389,-0.1693296732900826,-1.029252626536466,1.5202761090230303,0.724684434439673,-0.2136595891481785,-0.475022866644967,-1.2024799934655508,1.4029791249700931,0.965970903261854,1.396706987837394,-1.1622674303555436,1.359323834583064,1.8269110567351083,0.1191050284649494,1.7033748817639047,1.5437474008344405,1.700497087518493,-1.6563987762487502,-1.6719179677958016,-0.7289055713442708,-1.31630523178592,0.8448654897688314,0.2402903333117823,1.5795604704325443,0.9502164433819588,-1.4134788587773095,1.742389693126113,0.1465214765162938,-1.160094513412223,0.9502164433819577,1.5727918361461846,1.4198568379724013,-0.4839299149372424,-0.3188966490608101,1.6126476099998577,1.8423124480077824,0.2034472619255987
0.1168967117642444,1.0781626990942847,1.265230984397433,1.0573610017461166,0.0515731294707965,1.05399259535107,1.0761500885151185,0.3372802124168944,0.1960659374937798,-1.5103092689581965,1.7664017574729582,1.0523728827672592,0.4009368311674616,0.3876819146101763,-1.234333651496139,1.0666512296123936,1.477954367286241,0.7563697188637841,0.0332583521354032,0.9378951523201738,2.2258831252122624,-0.4097826307597859,1.8876666549836767,1.8276655842342373,2.191592783101333,-1.75429855887697,-1.801324765867838,-1.0805614225249711,-1.4878436277289742,0.9929205417940952,0.0259796943960804,1.5296567666959682,1.4246672791965398,-1.457651907427163,1.652705168674711,-0.2833628508457911,-1.7962381995172088,1.4246672791965376,1.339303431034002,1.0241615409544336,-0.4937487227761043,-0.3232869630457173,1.7185671333908523,1.409453822179379,0.3580096857211316
-2.119908894105918,-2.4009086030756976,-0.0171978464953597,0.124123440837334,-0.9350856216880926,-1.010582686152096,-0.03232997143736,-2.272597746724045,-1.996307727209395,-0.5481959841147359,-0.1615824887181436,0.1486783680939373,-2.294851434206645,0.5598076011339385,-0.2751199565318957,-0.2489737275823508,-1.525615346365648,-0.54474555931805,0.4300750864350268,-0.2309657012135295,-0.5672234531643472,0.4686003129345905,-0.5343308537597404,-0.4568038224028105,-0.5112167787444489,0.5198420048883488,0.5254920335421944,-0.0358193678533876,0.2591883696891229,-0.4990193247887681,0.5474923930059593,-0.4927204816375929,-1.7655850102565158,-0.0843677930374799,-0.2219886695980578,0.4435276795361222,0.1437565647780775,-1.7655850102565152,-0.0769850452255299,-0.2530890796593855,0.2571024902345772,0.0986583118950334,-0.7612452777755743,0.0348544102683572,-0.4504086768247824
-0.4832218654204332,0.8735114460254623,1.27959327579619,1.0573610017461166,0.713498639106748,0.4844545866605415,1.6492355541140793,0.5317419309322372,0.7441593536695735,-0.9223511504427484,0.9870038707148532,1.253876028906873,0.6542747988647124,-1.5182148779810591,-1.162114699961051,2.0735724535610744,1.7598402833381068,3.048092540755199,-3.289166474284332,2.169871456036309,0.00319806052371,1.3628519888141732,0.0422764988499836,0.1508364617191863,0.0877662730160731,-0.0568714718072822,-0.0518179250274854,0.9218957902643706,0.4374034585199161,-0.6537810601651859,1.1373431981959083,0.0806529830882599,1.600033877484351,-0.8046407796914938,0.8353805435919746,1.3708708910102818,-0.9392691685461472,1.60003387748435,1.0530784111378966,2.1322158774710145,-0.7876218400712853,0.0915454566475579,0.6848198786144668,1.0891921846079782,1.0746644300991663
2.571927254792471,1.4192481208756555,-1.967550759849044,-1.7423516809802309,0.1343407853364071,1.196377097523702,-1.8438121763497792,2.1500801440440576,1.901245454485138,3.0330034650248106,-1.638336379417711,-1.8174303039001265,2.0836676061923587,1.1041449472553388,2.1501074620484717,-1.5333542880530402,-0.9552320017995412,-1.0424893707492435,0.8765567770023666,-1.5281265960452204,0.0041527051556961,-3.176725587160136,0.1197095795149944,0.1390524581445883,0.0259855516039173,-0.1640846346002366,-0.1482846856555178,-2.535379048487499,-1.3156565870227257,1.7966961205744516,-3.5363964663511336,0.2381206962923579,-0.90087288865545,1.1397392832002535,-1.2114990748320316,-3.41155474990485,1.226031740734583,-0.9008728886554488,-1.523611405462432,-1.5013125010455028,1.1346730401990313,-0.7051383610794131,-0.8054143422078395,-0.507250775679497,-0.9899224681092886
-1.083340442605111,-0.0815277349623759,1.4600010354110715,1.40732508708691,-0.411048973720996,0.2708778334015933,1.3323378182526104,-0.7262859132795128,-0.7783223579298535,-1.1361541026301838,1.0280248121231743,1.2540263078578744,-0.6395437060182886,0.2642999120582706,-1.3061683639774708,1.3776802529845988,0.5944270179009459,1.0235008788349724,-0.3818608023581141,1.3214152927565703,0.972857761617728,0.5428417222697021,1.0324597907334363,0.9583605261667778,0.9110050671068738,-1.0516949451813131,-1.0460332082541952,0.0332729328246557,-0.6210307251055281,0.1807074920983812,0.7523577390381034,1.0773696345073864,0.6022571954573164,-1.243496384745756,1.4467669346177583,0.4834646250598641,-1.3968485453690236,0.6022571954573164,1.4984686029766747,1.3432395707724174,-0.3029892432459991,-0.450902553822038,1.1294227205925618,1.2314997028442596,-0.0884686907996877
0.4987903517908575,0.4642089398878173,0.1926066429247808,0.2407781359509319,-0.7434482039218735,0.4132623355742254,-0.0093366158773879,0.3066309627770993,0.0742674005658256,0.4673680387755833,-0.1205615473098223,0.1542250400730192,0.2911727731843673,1.3662628134190244,-0.4428351606716685,-0.2517055365922064,0.0832987421429478,-0.4946530406324676,0.9664747419686452,-0.1961611716788478,0.0241051442010304,-0.0071210248881238,0.0963172681443819,0.1622269895913776,0.0802513161482589,-0.1247614948236894,-0.1141156039519058,0.1549460533510451,-0.0514589643246861,0.1316670864047109,0.217554829246958,0.1742328085878181,0.1774308452296797,-0.5051273904936675,0.240098540246949,-0.0558147056072034,-0.5773696025130249,0.1774308452296797,0.2977612212112243,-0.1916325260709774,0.0915738706962973,-0.5857701454492844,0.102093488070198,-0.2341303844934427,-0.4497715786093134
-0.5923343339994656,0.4642089398878173,1.249995656410709,1.523979782200508,-1.0062468549464467,1.5523383529552823,1.2808642627460125,-0.1018779600913727,0.0133681321018485,-0.7619989363021715,1.479255167614709,1.567325811175307,-0.0427586539696201,0.6543003093934978,-1.3625714369360575,0.984947232617352,1.1144640896025968,0.2145151902157766,0.2810104462713683,0.918469674673434,2.1211428536016106,-0.3671757244489039,1.9558966013450465,1.7401633318490426,1.926421364604404,-1.8881742248400624,-1.913040645442031,-0.1100036267676244,-1.0574593670999537,1.1483391614247769,-0.1292525555259731,1.7684288381614233,1.1073840684876208,-1.5754430909327095,1.7069249914032,-0.5074099054454251,-1.4038647025092017,1.107384068487623,1.4293778888041175,1.0002462938092302,-0.5809998369250344,-0.4490867709130333,2.8665707763107,0.6296740559076602,0.4429212881368425
-0.1558844596833363,0.5324260242440915,1.074686378105721,0.9407063066325188,-0.0103878237378071,0.7692235910058057,0.8352672820616623,-0.1770306675824853,-0.412926747145991,-1.1361541026301838,1.3151714019814238,0.8943332059928528,-0.1278699748791406,0.5142779757351562,-1.007096967316315,0.8236622167597384,1.0390365224848903,0.637711587262487,0.2811029911050273,0.8213234000433375,1.4664597349794428,-0.0671690700780803,1.3629718572533724,1.3174260562028497,1.4524533276415803,-1.3260901874753206,-1.3368741327164155,-0.3999015465190136,-0.955669978548615,0.6912327777625081,0.2146777516727524,1.2712750109562598,1.0430074659108608,-1.214730263085241,1.324551212612738,0.0677899016659778,-1.253778838907081,1.0430074659108586,1.1732847876205033,0.8746136552877655,-0.3625564265064334,-0.465170145456746,1.464006487639037,0.9464479389068254,0.1134018937520098
-0.5377780997099494,0.327774771175269,1.451977540034335,0.5907422212917254,1.0642222130593697,0.6268390888331736,1.1383881614456306,-0.1540616460229598,-0.0475311363621284,-1.9913659113799265,1.889464581697922,0.6285112227426849,-0.0606468644973409,-0.9368634870066792,-1.1479941266453777,1.5341171526642738,2.564817749409539,2.2392233377112003,-1.903605150571128,1.4723588500931457,1.5992889759413702,0.3041752013795023,1.6566809526021091,1.3603879130180412,1.335135022335001,-1.673310457598089,-1.668899120017139,0.265753515162301,-0.7880264644606538,0.7490193614627647,0.3195001095111215,1.692254058912752,2.280655301646259,-1.4013902947527646,1.7104638535985257,0.5767679876419816,-1.2787543452682213,2.28065530164626,1.6192221702463172,1.520429924623906,-0.1805339882249602,-1.1085343599668265,2.898545395134607,0.9524350689854902,-0.1444953407764047
0.3896778832118252,-0.2179619036749243,-0.7656559121299588,-1.159078205412242,0.0535678821305905,-1.152967188324728,-0.9313095166544542,-0.1449048240125084,-0.2911282102180368,0.7346217290098778,-1.228126965334498,-0.9669918400888532,-0.1986295371834446,0.4438055254619635,0.7689443179779853,-0.8169969748952296,-0.3091246536462896,-0.7100130667960686,0.5330182009015139,-0.8206391195727898,-1.27181880041089,0.546436400556567,-1.3272755183837237,-1.36996078267261,-1.3175390388806876,1.3468240766595925,1.3396954308470872,1.0261871953946078,1.327925922923686,-1.2515835074108133,0.6019140692126198,-1.3778614423713489,-0.2034842454971497,1.1840707502849357,-1.1906342486382395,0.7273007601945747,1.416539414739218,-0.2034842454971497,-1.0747344020247986,-0.8649689639171749,-0.3775655721920365,0.2664117542669729,-1.0649327753836255,-1.266614510622186,-0.0102991943353739
0.0623404774747282,-0.0133106506061018,0.3766564217957743,0.0074687457237362,0.1760892444137342,0.4844545866605415,0.0357388196344618,-0.0322294520743544,-0.1084304048261055,-0.1205900797398646,0.3716897495900334,-0.1003507657465305,-0.0324674666434199,0.0372486834172282,-0.3413635878993313,0.0270497940410013,-0.1686134445551738,-0.0984233547097465,0.0912891142145128,-0.0142588611937562,0.4092305798683936,-0.1231838816985746,0.4623800560264182,0.517387087773391,0.4539694873115101,-0.4804980720159535,-0.4749244145596844,-0.2873702983082423,-0.4815825846830938,0.3665258953647077,0.1158568649803514,0.5065325960017226,-0.0957859331072914,-0.5046657632197717,0.5005366436486522,-0.0778416119802142,-0.4766318451847474,-0.0957859331072903,0.4822342819690324,0.0048537904965258,-0.3146275465091102,-0.1201811224596621,0.1947725397431201,0.2765976559601922,-0.1029946823414709
0.1714529460537605,-0.0133106506061018,-0.0373486272236642,-0.4591500347306549,0.8979854678030036,0.4132623355742254,-0.2059005223385089,0.1617894329627635,0.1960659374937798,-0.8689004123958893,0.9049619878982106,-0.4558476475726525,0.153950237966036,-0.9423917605547256,0.2301072615101931,-0.111659604017953,1.2681621440882167,-0.0694399742472159,-0.3280424375008537,-0.2005314605808071,0.8393297087717604,-0.6967591566013338,0.8195300745107811,0.8759350378011689,0.891180748343788,-0.80920462197333,-0.8138247606137958,0.1620353002915206,-0.3848770305141586,0.9431621035411388,-0.6624172324725741,0.7867637542861463,1.2953365690655934,-0.1647906752235113,0.3598742864257759,-0.691377664914668,-0.216729972495087,1.2953365690655945,0.1682892404155105,-0.1583473994119348,-0.3705681950936281,-0.763699960445683,1.3096849642395332,-0.4156623508870188,-0.01639304937615
0.0077842431852121,0.1231235181064465,0.2426024856082971,-0.4591500347306549,0.4821209433000331,0.4132623355742254,-0.0666560174966774,0.1339168930199263,0.2569652059577569,-0.3878437699741592,0.5357735152233187,-0.3643258847450509,0.1350815983782911,-0.6934757318118537,-0.0991457395884596,0.0381374496578624,-0.0462828012166048,0.0440157979431569,-0.3312518623910366,0.0336413418981251,0.1483637757019003,0.1304726459591073,0.2378663273084799,0.2643640960102856,0.1815355518551124,-0.2735499927014538,-0.2597794135145224,0.0107843461993719,-0.2214409844931447,0.2005472103832445,0.1840182966688647,0.3370487333086046,0.0301899568423909,-0.2518863342121996,0.3126121455993889,0.2223428855194305,0.1040007182319312,0.0301899568423909,0.3634343602693765,0.0398943516410194,-0.3921452876918255,-0.0818981764682073,0.1663031958989186,0.2060965388933528,0.0120117123465464
1.9718086776077937,0.8735114460254623,-1.404838079192144,-1.9756610712074263,5.321709231992335,1.05399259535107,-1.482499451681051,1.5455111284326817,1.5358498437012755,-0.2809422938804414,0.822920105081568,-1.877959768250664,1.5016883604420987,-2.766516370186205,2.320263754486742,-0.953043291822669,1.0221572124751095,-0.2328635991020586,-0.2200223474842506,-0.9692643234073968,0.4407420298762812,-1.7594150900287029,0.4889082794926121,0.538948069307663,0.4866253290679898,-0.5063940830777657,-0.5001736093348168,-0.321882682028989,-0.5124354689916457,1.6369174124782562,-2.702757361076607,0.5347716880444211,1.1153990376573943,1.3296211617992266,-0.7173859933644412,0.0425651819206126,2.2869772742738066,1.1153990376573943,-1.057104556475738,-0.932061208943464,-0.0800223662515228,-0.939658452669745,0.6388902117704743,-0.8302116753661237,-0.1741880425731753
0.0623404774747282,-0.0133106506061018,0.0582624249662963,0.2407781359509319,-0.347473138310169,0.1284933312289612,0.05702560358605,0.1268106439054984,0.1351666690298027,-0.0671393416930057,0.1255641011401055,0.1836776779803488,0.1154183270708835,-0.0151620630588438,-0.1244798413506996,-0.1666479148054118,-0.0484781787741385,-0.3757496629726641,0.1625098794811506,-0.1916293155360474,0.3420664719520249,-0.2708064607231218,0.2937569741268884,0.4534406363537239,0.483373558337718,-0.2760474085755606,-0.2813905879768464,-0.19547663603178,-0.2682860721391381,0.3640889627390472,-0.0453023312348254,0.2497029310510737,0.0416330437334452,-0.1750387784178241,0.215657717556752,-0.2974909653697855,0.258109034524043,0.0416330437334452,0.1299744185456671,-0.1725226100055902,-0.090788015142653,-0.5443393243810625,0.1001717673289007,-0.1241588808522372,-0.4738146073760685
0.7170152889489221,0.327774771175269,-0.3508292802161613,-0.2258406445034593,-0.5821093436689563,-0.156275673116303,-0.4851449681740893,0.5269962685976457,0.5005622798136652,0.8949739431504545,-0.7768966098429634,-0.3461015974451522,0.4891931577442618,0.438221720438697,0.117846291105241,-0.6549830462815198,-0.8918973977781659,-0.7027606400261948,0.6084742214725594,-0.6274044237929635,0.5898933811186446,-1.1584707938207135,0.728864204635259,0.6467548556156871,0.5310870233008923,-0.7801859893031909,-0.7625466585488317,-1.7786957703585289,-1.436583451599802,1.0813082824509277,-1.010535244578075,0.8622674407309614,-0.8831056230052116,-0.414423155369042,0.1423109917462517,-1.3155692564210917,-0.251687403259073,-0.8831056230052116,-0.0129320039215317,-0.5892817073252138,0.3579201090665876,-0.371458772146625,-0.2156581187805679,0.5956649348076847,-0.7134098731684175
-1.083340442605111,0.0549064337501723,1.480766327675492,1.0573610017461166,-0.2403239512917436,0.4132623355742254,1.2705735390804462,-0.6179987596875793,-0.5956245525379222,-1.724112221145632,1.5612970504313517,1.0532093526168864,-0.5302931690677108,0.0623093343903,-1.3043947991705191,1.4032474699058295,0.6974834090649771,1.174179613922727,-0.601428916131245,1.3418836654723238,1.1492575171071693,0.4614735325341193,1.1167087202933768,1.1106193151199748,1.1491030123419907,-1.1014577221247952,-1.107300445367858,-0.1202855288110986,-0.7004391111528783,0.3141554089866663,0.6759809196131593,1.0723437915749836,0.6998520360808084,-1.2863231106538002,1.5263807878980422,0.3516553840854032,-1.484841291025503,0.6998520360808084,1.5218749564242329,1.3714828197675837,-0.2039977925380419,-0.5818916701392285,1.1755718134278743,1.2949102412379028,-0.2007325739305237
-0.3195531625518848,-0.4908302411000209,-0.0633393858781844,-0.1091859493898615,-0.0072735486924822,-0.3698524263752512,-0.1254803721952134,-0.3537054538615676,-0.2911282102180368,-0.2809422938804414,0.0025012769151416,-0.1431235370339946,-0.3690146398471983,-0.3955513122599995,-0.1066120416281908,-0.1900786914772865,-0.3893690450451577,-0.3335990778079985,-0.0475009629770724,-0.2192646529946722,0.4791628193152951,-0.4212878589496913,0.5285798670987762,0.5754743624193013,0.5233367482664437,-0.54716878485665,-0.5405340042010323,-0.3648740779803525,-0.559677626892282,0.6748074979649434,-0.3972844680765401,0.5774046446392461,-0.3237420041971676,-0.395499454977128,0.2283880158940045,-0.5001400916140235,-0.6000599647732047,-0.3237420041971665,0.1124464158117088,-0.1933567824307668,0.0244125812707819,-0.571171655742345,0.2730988410913901,0.0591421663852014,-0.4693810260502347
-0.8651155054470463,-0.0815277349623759,1.2010778922255856,1.40732508708691,-0.2102359666956204,0.1284933312289612,1.3329239272099045,-0.4095099141974847,-0.1693296732900826,-1.3499570548176194,1.1100666949398172,1.359678515091966,-0.3348612225169011,-0.3083404280351502,-1.0649820384114093,1.217589723611605,0.8521228861884368,0.870815529140313,-0.8419375112727218,1.1064694518775826,1.577066849010886,0.0816896289196677,1.4562523556918114,1.402845985206104,1.5389895361198642,-1.4078616476665744,-1.4254398722746784,-0.5027280968585922,-1.0527174827491017,0.7463429229616875,0.2131046993722067,1.322939786569623,0.8579595045792541,-1.1378571302472,1.4586480979515726,-0.0448275817956077,-0.6352607549808633,0.857959504579253,1.2966737343171562,1.1598905970886642,-0.499665388844739,-0.3479713901385386,1.3996202821316448,1.333907467801925,0.0725354219035507
0.0623404774747282,0.0549064337501723,0.3363369501186992,-0.2258406445034593,0.3631690257158685,0.6980313399194897,-0.0726672287888862,-0.0148306471334158,-0.1084304048261055,-0.5481959841147359,0.822920105081568,-0.2346385497463202,-0.019431874214745,-0.0905951394982637,-0.2948434891980091,-0.044558477518091,-0.1451086009257162,-0.0918177442101634,0.1171665020494517,-0.0369586078377026,0.3166781992467677,-0.0736672374265104,0.4067837190235449,0.4291559242470937,0.3371484459468419,-0.4402064954035758,-0.4287241369423635,-0.184388840632383,-0.4211063096845704,0.3304339680783801,0.136028916215862,0.493759252880356,-0.0695952478941515,-0.485398505009354,0.4637709293930705,-0.1532104877908205,-0.1701607411140431,-0.0695952478941504,0.4832912347214874,-0.0217168588110769,-0.079729327898137,-0.4548978198756281,0.2042005838359888,0.2069938308340944,-0.371758054314699
-0.3195531625518848,-0.6954814941688434,-0.0862652683235157,0.2407781359509319,-0.6534064636258702,-0.2274679242026191,-0.0864617950799726,-0.6086186648412462,-0.6565238210018993,-0.3343930319273003,0.1255641011401055,0.1337946157180158,-0.6348883672295447,0.6207058947393242,-0.2248768996546982,-0.3409224629697727,-0.5680901000734186,-0.5944532889819709,0.5681615120311442,-0.395946022963119,1.4773253758824838,-1.54928081245036,1.364313061845186,1.3283675216720756,1.45964773207075,-1.3196341081563887,-1.3347313894226738,-1.492082595172758,-1.5258026440452237,1.546649325868407,-1.4259063037977555,1.245680202651712,-0.5114498764929699,-0.8040333465669974,0.586390787121673,-1.6675089761122186,-1.093665952714599,-0.5114498764929699,0.2169737405578069,-0.3209479094151649,-0.0218207982633555,-0.3811630955364093,0.7291819834403108,0.3911231057891022,-0.3485893476337732
0.0623404774747282,0.6006431086003656,0.9701454635119814,0.4740875261781275,0.706731944134841,0.9116080931784378,0.5870847116446264,0.1784093514066058,0.0742674005658256,-1.1361541026301838,1.3972132847980665,0.4119774035420963,0.2216610924620929,-0.3977149682095922,-0.8432964305367122,0.7278502852556975,1.3315375803759977,0.8213896457665519,-0.5100543055755271,0.6893625273014822,1.482754117413707,-0.187726625349886,1.3804986601848095,1.332948618268171,1.4568552660429823,-1.3411039415820063,-1.3541250801883276,-0.41728771963265,-0.974177823763038,0.8172942776362702,0.0437087572549852,1.276728036353126,1.30860595758377,-1.1015176060664202,1.2782003670512534,-0.2083175184238937,-0.665061900975058,1.308605957583769,1.0986552032424275,0.7457028939364769,-0.5434173997580387,-0.3544074525829912,1.594897130291392,0.863531878623749,0.3690250761693669
-0.5377780997099494,0.8735114460254623,1.312459959922956,1.1740156968597144,0.6919231611489236,0.4844545866605415,1.688608736235199,0.5102917084759203,0.7441593536695735,-0.9223511504427484,0.9870038707148532,1.2682931588088708,0.6364173938755987,-1.5211135389034125,-1.1870087474767148,2.13325382432482,1.7467450967164888,3.130360763199467,-3.381693921908347,2.219443318053154,0.0887484971407687,1.3390637582362848,0.1119565782221602,0.2351768903750508,0.1847972363997435,-0.1199213471718224,-0.1174428153200758,0.8446601742766369,0.36493569236484,-0.5860246536501567,1.1137668023051923,0.1316401512267417,1.586920863992923,-0.844179080027721,0.8915108408394072,1.3606859271806246,-0.9984804472665744,1.5869208639929255,1.0875479265673182,2.1848677148658395,-0.7480356356533039,-0.0078270208063213,0.7287487897516093,1.211723260801618,0.9335873270210177
-1.3015653797631757,0.737077277312914,2.021335988558054,3.040490818677279,-1.4221852560082868,0.982800344264754,2.74686930068725,-0.738320836693673,-1.2655165056416702,-0.5481959841147359,0.9870038707148532,3.330843097236557,-0.5787594247829885,1.8150501836949304,-1.9409143581583512,2.487352061691072,-0.4766594187620201,1.533762747666163,1.568878052224106,2.6363154978013417,-0.712224809095939,1.7851237279581087,-0.6525615967968718,-0.6292789101921262,-0.6898406577062927,0.6273331494849546,0.6370171486221939,1.0026847764672056,0.8362503732889672,-1.6502849071595656,1.6881750373536455,-0.5812015340016784,-0.6088223194530966,-1.179427282507034,0.9847144364049348,1.783449209983086,-1.4527779774758318,-0.6088223194530956,1.519042231930616,2.5575549044332337,0.1510114021707845,0.2502286367852648,-0.5352991584239517,1.788554350911942,-0.0557277443961022
-1.2470091454736594,-1.1730010846627623,0.0404482802009196,-0.1091859493898615,-0.8413134489763815,-0.8681981839794637,-0.0026174395246177,-1.7818829012745938,-1.996307727209395,-0.0671393416930057,-0.4487290785763929,0.0795139326703729,-1.7965598925383728,2.452320197933555,-0.2044970405059563,-0.1392695856884433,-1.2614033373773277,-0.3992656671650135,1.4958748363653582,-0.0452902688220773,-1.1805626196970518,1.1432900266983468,-1.250703382811955,-1.2286905720031902,-1.1859893786454825,1.276723514120509,1.2668902364699963,0.8924771361608818,1.2289066248913616,-1.4479513433438864,1.0769876890492915,-1.3203060975607983,-1.4086078650760137,0.3895600479993683,-0.5666868011406696,1.0359688578071886,0.0163297530348204,-1.408607865076014,-0.3336168901877729,-0.0989214399802208,0.9105659426647426,-0.3575433083012574,-1.147592073590909,-0.5739471091732485,-0.7633423834598471
-2.0107964255268858,-2.8784281935696168,-0.5873179999870376,0.0074687457237362,-1.1286703945304255,-3.217542469827894,-0.4260548233965892,-2.9358195470150177,-3.214293096488937,-0.0671393416930057,-1.802420145050996,-0.1313029147697237,-2.9910981575114146,2.497666748011536,0.2190599235051813,-0.6691014295653547,-1.874943883062548,-0.7400413807970662,1.3175520492944628,-0.5578612696364035,-1.539963590313963,1.1130350145476893,-1.6383117098913056,-1.7754147707507937,-1.6527330168911163,1.673995883390355,1.6610772447046944,0.6139291582920343,1.3933078648674162,-1.8168781355982733,0.982241424826294,-1.7316604566871467,-2.287400754783671,0.9387371992628296,-1.2437628009446724,1.3595380856457575,1.005272714259964,-2.287400754783671,-1.0559752054732834,-0.6191297967873456,2.525632797118333,-0.474194305380933,-1.5329826846065335,-0.691229271894272,-1.114092481899062
-0.1558844596833363,-0.6954814941688434,-0.9892261068384136,-0.8091141200714485,-0.278433341645298,-1.437736192669992,-0.788138141221866,-0.2248718768925997,-0.0475311363621284,-0.4412945080210181,-0.4897500199847142,-0.6495444855440183,-0.2795863949239457,-0.5102083223710975,0.8514925524747888,-0.821605643986057,-0.3162550987504436,-0.7321482847416865,0.2608072104448241,-0.7554185893844538,-1.1544554617960492,0.4903706156263194,-1.1873958605518582,-1.1933359990675731,-1.1733666777611873,1.1982373629581409,1.1943559492684437,0.8477993062007942,1.1381849707431422,-0.9161050836635686,0.2765794305984214,-1.2143713615500549,-0.2149024759795528,1.2331827891354032,-1.270590467230872,0.4089950503524737,1.5431270086844384,-0.2149024759795528,-1.2112092638383485,-0.7954746115358704,-0.7226846849340877,1.1301943778209749,-0.9856414610127892,-1.0894306185700953,0.5453697223897723
-0.2649969282623686,-0.0815277349623759,-0.3696122676292511,-0.6924594249578506,0.1131365256543402,-0.7970059328931476,-0.2302639595717796,0.176933106849786,0.3787637428857111,0.9484246811973134,-1.1871060239261766,-0.4849304488293524,0.1644305227598072,-1.007137597389528,0.5176795298513887,-0.1895758348277353,-1.0791656482718424,-0.2097447166034294,-0.4462790158978977,-0.15593340504843,-1.2285567786232248,1.111383566757243,-1.2580671565647856,-1.305592265890541,-1.2702670644105314,1.2669907552596646,1.2640824307756875,-0.0282116605671842,0.8021669932894345,-1.3144275533486414,0.8298054204515137,-1.278644295966778,-1.158515882893422,0.99846783273382,-0.8849505722413387,1.354100615763917,0.8937812514460854,-1.158515882893422,-0.6867137294513219,-0.2098493561852341,-0.3664022311470978,1.4352889258765424,-1.4336917438428756,0.3574447455057064,-0.129773080553832
1.0989089289755352,0.2595576868189948,-1.1335282548125654,-1.042423510298644,-0.1555367890999814,0.1284933312289612,-1.1827401304232754,0.5335122869293879,0.317864474421734,1.269129109478467,-0.8999594340679273,-1.0270909603430989,0.4673302277721255,1.100567729147386,1.1842676852156175,-1.1351641351348658,-0.9159600310016454,-0.8751049036353575,0.9112485019605974,-1.1133141717848658,0.101661459105194,-1.7329879558546015,0.1499211988873369,0.2373170970018374,0.1716547452818694,-0.168065557559005,-0.1616643750091754,-1.0345312209221595,-0.6520322292720996,1.0414905329629314,-1.5858185295076723,0.1979270497730398,-0.8808210093493002,0.5808470543202325,-0.6364778338863748,-1.5124406634095604,0.9595401889578352,-0.8808210093493002,-0.8485616244639836,-1.089231997419569,0.9161600848128256,-0.8370253441503204,-0.429844290881597,-0.5999300271857864,-0.9447465768935552
0.7715715232384383,1.7603335426570264,0.8421111387157381,1.1740156968597144,-0.1517664866225712,1.6947228551279143,1.0179541543791026,1.3283131895707176,1.2922527698453672,0.039762134400712,0.9459829293065318,1.0990767736616245,1.3835331134341318,-0.3244340846540864,-0.7916523147937256,0.891568573658753,0.901859282815322,0.6140518448442125,-0.6711791103625291,0.8279292042891226,-0.4445873380734853,1.0963988663759037,-0.4332502198714428,-0.3044396220004204,-0.3506804935169456,0.4275912389258582,0.4297571286515609,1.334218353180304,0.9477092377411364,-0.9353480613801234,1.1415147163739323,-0.416753381336484,0.913286052044462,-0.2778833534447649,0.3464783272314976,1.0273508192313756,-0.1520905087426626,0.9132860520444608,0.5962314587801272,0.7930111410463698,1.0653974331655585,-1.413897581552752,0.196777909672739,-0.4307031647939081,-1.0677357787146011
0.8261277575279544,0.0549064337501723,-0.9089158707476008,-0.6924594249578506,0.1784241268609239,-0.2274679242026191,-0.8966817748809205,0.4704362160513256,0.3787637428857111,0.62772025291616,-0.6128128442096782,-0.7868599785471727,0.4159538677766342,-0.0317115422620359,0.9176570274153812,-0.9265373193304683,0.1592888617902331,-0.7656834218314311,0.521114280774586,-0.9617981817835652,0.0552975012603641,-1.2828766951295585,0.0540248153104506,0.2098054113704416,0.1753022777108534,-0.0522390598829433,-0.0534591201730506,0.1259508815807444,0.0091075833307078,0.8432995084493465,-1.1549090696520117,0.046849062862872,0.2980918393528127,0.5388076379305682,-0.5027193980472595,-1.2096618177042129,0.2796205270878827,0.2980918393528127,-0.6849649452068184,-0.9424929159890054,-0.4938078150888367,-0.1491350628651404,0.1451390287507589,-1.0761920872007629,0.1329798868473517
0.0623404774747282,-0.2861789880311984,-0.2108645817405877,-0.2258406445034593,0.0471225358524141,0.2708778334015933,-0.3404955277470304,-0.0777936069172146,0.0133681321018485,-0.0671393416930057,0.2076059839567481,-0.3158833510357443,-0.1056863693530738,-0.1712309589423838,0.117435060315299,-0.4133610991917346,-0.2168420255822311,-0.5002451700864322,0.2427470152437923,-0.4558782426672012,0.6496983509985792,-0.9148788606300536,0.6148293788574664,0.7250020036097973,0.750855823203825,-0.6010281193675764,-0.6055954318781214,-0.550854899991009,-0.6499524951242122,0.9518901311058496,-0.7671910431467893,0.5782200262926358,-0.1203037949333954,-0.2561298810460933,0.2205341393832075,-1.0480248197561906,-0.3585827514390979,-0.1203037949333954,0.0350740642349172,-0.4179869954806074,-0.0550346776406372,-0.5449566645064061,0.2789517833965625,-0.229834404301685,-0.4379573034033553
1.6444712718706966,1.8285506270133003,0.0826685415317123,-0.3424953396170571,1.4737098235892494,1.6947228551279143,-0.0610400676652712,1.8765152622831056,1.901245454485138,0.1466636104944298,0.8639410464898892,-0.3071013099824025,1.8893567646227416,-1.3761147160407643,0.1212489447184212,0.0431876540519119,1.3522535968335787,0.2428440972141872,-0.7033530473797437,0.0034778862402947,0.9764241071334308,-0.5425861707813455,0.9243879262759792,0.9778364753145238,1.034941303427261,-0.9031317036476184,-0.9103243102872468,0.0397739460482202,-0.4931632173592241,0.9351614021236212,-0.5627517322634404,0.867425638528779,1.3587073379409629,-0.2736057098776199,0.4890940135858522,-0.5091944189201123,0.0976247036537988,1.3587073379409629,0.3064853546853222,0.0484273624429328,-0.8888998571586586,0.2585176406603794,1.373209510018985,-0.1749163933182788,1.37803848888452
0.662459054659406,-0.0815277349623759,-0.8723961734958426,-0.5758047298442528,-0.131176130204515,-0.8681981839794637,-0.8115515812062347,0.2728563317208038,0.1960659374937798,0.6811709909630189,-1.0230222582928914,-0.6930489060986316,0.2195513325998963,0.076943832290631,0.796110353835209,-0.8734360306070741,0.0114428241004368,-0.7805438130701329,0.4973187413627197,-0.9292783039485056,0.1600382731449287,-1.3302472210605352,0.2444762771550978,0.2920038473931384,0.2021570560589248,-0.2768557522675962,-0.2651144848555414,-1.1277202554445829,-0.7839856717827242,0.9392511455557966,-1.245303087914785,0.3314426442912397,0.1461693645787944,0.3268464983999933,-0.438423801675587,-1.2414863706345771,0.0777613629572913,0.1461693645787933,-0.6075369309007537,-0.9057113732084252,-0.3319127972084569,0.0370018728962395,-0.2368737489892999,-0.2343356993440924,-0.072790082992088
0.2260091803432767,-0.2179619036749243,-0.4362464598073006,-0.6924594249578506,0.5439869810889151,-0.0138911709436709,-0.5666863257496052,0.0512981475125135,0.0742674005658256,-0.2809422938804414,0.2076059839567481,-0.6818412735662739,0.0183210823407723,-0.5864647777819588,0.5093800627973318,-0.5097827256244934,-0.1347578839800162,-0.4928110352927329,0.1300295612930685,-0.5884646363106881,0.8426681377657326,-1.3310880508869627,0.7962016200600915,0.8688355265547155,0.9236885959966517,-0.7793909963925251,-0.7839615979617929,-0.7695623781426131,-0.8631407326598336,1.2658954481942597,-1.299315562588216,0.7554499375680092,-0.0243686556293824,-0.0722537228817351,0.1269702667121704,-1.393570416894811,0.0581851246150032,-0.0243686556293824,-0.132775348467339,-0.5393682019732737,-0.0657245175296531,-0.6078638054232088,0.4390136208785929,-0.2309438748612217,-0.416175536185605
-0.5923343339994656,-0.3543960723874726,0.584689265306968,0.4740875261781275,-0.3078238860765236,0.2708778334015933,0.4476144475227598,-0.5857122377014032,-0.5956245525379222,-0.4412945080210181,0.4947525738149974,0.4906541454509299,-0.5687636587573678,0.1962259115306067,-0.6740012369411799,0.3183244480691177,-0.5303945571256133,-0.0104697977301511,0.0560066195820278,0.2597690675790823,0.4903600856839574,0.0886269645483764,0.5021360847767176,0.5924250270804451,0.5660592577669441,-0.504678282346414,-0.5043276844748312,-0.3753346464823268,-0.5228872758718623,0.2955931607159625,0.2909742059036522,0.5058582605879512,-0.5132989358612651,-0.726741162783546,0.6796186904810938,-0.0868172713763536,-1.13845705699788,-0.5132989358612662,0.6760755195679508,0.27784748197803,-0.0689897619775898,-0.2646853465571227,0.1551389844175308,0.5796620031875945,-0.3228245521718179
2.1354773804763423,1.555682289588204,-1.7915985172158848,-0.9257688151850464,-0.5921917969355133,-0.0138911709436709,-1.215236142650123,2.025341648956825,1.901245454485138,2.5519468226030804,-1.9665039106842817,-0.9211192446398756,1.973367019166892,0.06895820485394,1.600042616458076,-1.2219629838508848,-1.0273570762336266,-0.9957670903767624,0.6024063508696798,-1.2717081776969412,-1.4404140133652528,0.0659966096638346,-1.5295617095136582,-1.617334575596141,-1.5221792167830697,1.562183672003955,1.5501597347932456,0.411687281253083,1.2267141045366987,-0.8926579452299951,-0.2898750597985928,-1.615689370659571,-1.0133105368307629,2.008907294855043,-1.9662288689533096,-0.0535304911893008,1.410657008690742,-1.0133105368307629,-2.0090071418914306,-1.315951307931715,-0.6504398804340057,2.0072483980888998,-1.435648860273082,-1.3281699366893485,0.2977144064041917
-0.4832218654204332,-0.0133106506061018,0.8484225921524136,0.9407063066325188,-0.5747880670226677,0.0573010801426451,0.7214586073058064,-0.510456306289768,-0.5956245525379222,-0.2274915558335825,0.2076059839567481,0.861733076178321,-0.4794120054275573,0.6059108362612778,-0.8975214398403584,0.5351915746367643,-0.4677426943522118,0.0914006944490314,0.3102654704114619,0.461323124248489,0.9962373491981484,-0.0778814897417007,1.0225760487643076,0.9851098454416038,0.9641013827855596,-1.0284962698627886,-1.027821789476111,-0.9593298106713396,-1.1404918906431896,0.5844101279846474,0.1834342682934805,1.030937371242069,-0.4531035826277144,-1.053377417628881,1.0572960353355765,-0.0784180533145128,-1.1915256922338209,-0.4531035826277112,0.9825770337724374,0.499209454397334,-0.0002286520954178833,-0.2556209088246812,0.4192677882158054,1.31733910479184,-0.3552006131226017
0.0077842431852121,-1.4458694220878592,-1.7628534874279564,-1.5090422907530352,0.2657000756266925,0.3420700844879094,-1.547718575393465,-0.9388068574747882,-1.143717968713716,1.10877689533789,-0.6538337856179994,-1.446415905549024,-1.0359517426075766,2.8449227881807206,2.196858049027305,-1.360876364208789,-1.736076784349532,-0.9400088920997084,1.2213318672275444,-1.3343958997725052,-0.977676877049743,-0.8144215096251821,-0.9942471354832262,-0.9488345404085072,-0.959765811415699,0.999258680357554,0.9973501872543316,0.5817344248703225,0.8788403506806297,0.0282064439761953,-1.020008609203018,-1.0063846651155892,-1.9918473856097143,2.17936074565924,-1.6107932776217218,-0.8692288176718356,2.496312487525092,-1.9918473856097143,-1.7069150758224911,-1.3562161786521134,0.1711492780350993,0.0831039727311386,-0.9173669876356582,-1.5756327946208637,-0.2082771722437483
-0.2104406939728524,-0.0815277349623759,0.4896812607242971,-0.1091859493898615,-0.0296214370971068,0.9116080931784378,0.1233860256561712,-0.1492373226873001,-0.1084304048261055,-0.3878437699741592,0.822920105081568,-0.0527000047453376,-0.1448781982616469,0.0854506297417215,-0.4572299998639471,0.1077886848622388,-0.2403435844892818,-0.1280617097080731,0.1309561410398637,0.0224341341054665,1.7946755630093607,-1.132971052621183,1.7713652677606897,1.520656214437792,1.5608304306864589,-1.7544650829636614,-1.7633134020813008,-1.872905326113638,-2.0191376518455795,1.5458427550427076,-1.0267782015421263,1.7118833546884151,-0.1712989137546091,-1.073766840939723,1.1547114081738328,-1.2834754736098215,-0.8372632066693327,-0.171298913754608,0.8324198367007816,0.1047721664644727,0.1839724837831917,-0.6596284850596316,0.8149994707873967,1.2600833924386294,-0.580754920581835
-1.9562401912373697,-0.9001327472376659,1.379497577246547,1.1740156968597144,-0.4940555033026481,-0.7258136818068316,1.405832969502681,-1.3708933174092124,-1.082818700249739,-1.563760007005055,0.7818991636732466,1.2932111973713063,-1.2755374126800247,-0.23087334520912,-1.3770676043065473,1.422657288419235,0.1369254230932579,1.0054386964721016,-0.9656459062595836,1.3654579979894363,1.226086756687168,0.4332248261208685,1.2357157648783628,1.1562462349310534,1.1536118914191564,-1.2334673677685328,-1.2364238795012936,-1.222775565760035,-1.3901388313636882,0.4845615117006266,0.4977370193560387,1.2190127286784336,0.1459636893400595,-1.417622469451555,1.497833407532208,0.2923859409860108,-1.5248860552228836,0.1459636893400605,1.4564613229083885,1.398188030977651,-0.0293647476800475,-0.3780260538871027,0.487948306845557,2.724269263535778,-0.3801234933299875
2.1900336147658583,1.896767711369575,-0.7202862458790873,-0.9257688151850464,1.3805864134217396,1.05399259535107,-0.8042401366212466,2.176776831468165,2.0230439914130924,1.9639887040876327,-0.8999594340679273,-1.0410789931170457,2.1598074514913934,-1.3895821491055216,0.9763994291673876,-0.5848417505244029,0.218120383986464,-0.3295319815439519,-0.1015168908953145,-0.5540599019939281,-1.1250719592038476,0.6824770660637304,-1.166330513646664,-1.1504864178069882,-1.1311298516954889,1.180856435573017,1.175397051094157,0.8051376879448506,1.1117332559803317,-1.047324456221191,0.5259755998746352,-1.2042440191151025,0.3310767709928583,1.4124636953203902,-1.061598131504004,0.638225813424182,0.9164953892938816,0.3310767709928583,-0.9547239554024994,-0.5962694620068633,-0.5102708803762086,0.3246045184167364,-0.9501241091204496,-0.9156242773877812,0.1925419363762212
-0.2104406939728524,0.0549064337501723,0.5571235590430225,0.2407781359509319,-0.1442286476461321,-0.0138911709436709,0.2182292136948641,-0.2484262453523981,-0.412926747145991,-0.2274915558335825,0.1665850425484268,0.2197837023292455,-0.2401357973189687,0.3133100986641947,-0.6023536954197677,0.1749311573018623,-0.2975909505905632,-0.021463936537613,0.2279540105807765,0.1609184784385104,0.3685969675469608,0.0856016659315086,0.4358118264930595,0.4822383245329619,0.4061405797896921,-0.4599404940191822,-0.4519069037752081,-0.2418649725443544,-0.4521852932569488,0.1922654300387143,0.3526113598959013,0.4973425886211835,-0.2462352951227108,-0.6851868758724928,0.6012652062671128,0.0814266196234148,-0.7774306258557467,-0.2462352951227097,0.6303788676282209,0.1751061498212104,-0.2703009540450702,-0.0652716786833935,0.1904311413057597,0.4858571756911649,-0.1058088048148952
